Adwaita++/actions/22/edit-find.svg

<svg fill="none" height="22" viewBox="0 0 22 22" width="22" xmlns="http://www.w3.org/2000/svg">
  <path clip-rule="evenodd" d="m3 9.28625c0-3.45512 2.83148-6.28625 6.28701-6.28625 3.45549 0 6.28699 2.83113 6.28699 6.28625 0 1.31455-.4099 2.53885-1.1081 3.55125l4.1889 4.1932c.1078.1054.1937.231.2529.3697s.0906.2877.0922.4385c.0017.1509-.0263.3005-.0824.4405s-.1393.2675-.2446.3753c-.1054.1078-.2309.1938-.3695.253-.1385.0592-.2874.0906-.4381.0922-.1506.0017-.3001-.0264-.4399-.0826-.1399-.0562-.2672-.1395-.3749-.245l-4.2069-4.2112c-1.0135.7002-2.2397 1.1114-3.55659 1.1114-3.45553 0-6.28701-2.8311-6.28701-6.28625zm10.2795 0c0-2.22142-1.7708-3.99202-3.99249-3.99202-2.22168 0-3.9925 1.7706-3.9925 3.99202 0 2.22145 1.77082 3.99205 3.9925 3.99205 2.22169 0 3.99249-1.7706 3.99249-3.99205z" fill="#444" fill-rule="evenodd"/>
</svg>

<svg xmlns="http://www.w3.org/2000/svg" fill="none" width="22" height="22" viewBox="0 0 22 22">
 <path fill="#444" fill-rule="evenodd" d="M3 9.28625C3 5.83113 5.83148 3 9.28701 3C12.7425 3 15.574 5.83113 15.574 9.28625C15.574 10.6008 15.1641 11.8251 14.4659 12.8375L18.6548 17.0307C18.7626 17.1361 18.8485 17.2617 18.9077 17.4004C18.9669 17.5391 18.9983 17.6881 18.9999 17.8389C19.0016 17.9898 18.9736 18.1394 18.9175 18.2794C18.8614 18.4194 18.7782 18.5469 18.6729 18.6547C18.5675 18.7625 18.442 18.8485 18.3034 18.9077C18.1649 18.9669 18.016 18.9983 17.8653 18.9999C17.7147 19.0016 17.5652 18.9735 17.4254 18.9173C17.2855 18.8611 17.1582 18.7778 17.0505 18.6723L12.8436 14.4611C11.8301 15.1613 10.6039 15.5725 9.28701 15.5725C5.83148 15.5725 3 12.7414 3 9.28625ZM13.2795 9.28625C13.2795 7.06483 11.5087 5.29423 9.28701 5.29423C7.06533 5.29423 5.29451 7.06483 5.29451 9.28625C5.29451 11.5077 7.06533 13.2783 9.28701 13.2783C11.5087 13.2783 13.2795 11.5077 13.2795 9.28625Z" clip-rule="evenodd"/>
</svg>
